X: 278
T: The Foxhunter's
R: slip jig
M: 9/8
L: 1/8
K:Dmaj
|:"D" ~F3 FED "G"G2E |"D" ~F3 FED "A" E2D |"D" ~F3 FED "G" G2B |"D" AFD DEF "A" E2D :|
|:"G" B3 BAG "D"FGA |"Em" B2E E2F "G"G2B |"A" ABc "G"dcB "A"ABc |"D" d2 D D2 F "A" E2D :|
|:"D" ~f3 fed"G" g2e |"D" ~f3 fed "A"e2d |"D" ~f3 fed "G"g2b |"D" afd def "A" e2d :|
|:"Em" gfe "G"d=cB "D"AGF |"Em" B2 E E2 F "G"G2 B | "A"ABc "G"dcB "A"ABc |"D" d2 D DEF "A" E2D :|


